packages/calcite-ui-icons/icons/mosaic-method-seamline-16.svg

<?xml version="1.0" encoding="UTF-8"?><svg id="icons" xmlns="http://www.w3.org/2000/svg" viewBox="0 0 16 16"><defs><style>.cls-1{fill:none;}.cls-2{opacity:.5;}.cls-3{opacity:.25;}</style></defs><rect class="cls-1" width="16" height="16"/><path class="cls-3" d="M2,5h2v2h-2v-2Z"/><path class="cls-2" d="M2,8h2v2h-2v-2ZM9,13h1v-1h-1v1ZM11,8v2h2v-2h-2Z"/><path d="M7,4H1v10h4v-6h2v-4ZM4,13h-2v-2h2v2ZM4,9v1h-2v-2h2v1ZM4,7h-2v-2h2v2ZM6,7h-1v-2h1v2ZM10,11h-2v3h6V4h-4v7ZM10,13h-1v-1h1v1ZM11,5h2v2h-2v-2ZM11,8h2v2h-2v-2ZM11,12v-1h2v2h-2v-1ZM9,4h-1v-2h1v2ZM9,7h-1v-2h1v2ZM7,10v1h-1v-2h2v-1h1v2h-2ZM6,12h1v2h-1v-2ZM6,15h1v1h-1v-1ZM9,1h-1V0h1v1ZM16,1v1h-4v1l-2-1.5,2-1.5v1h4ZM5,2H1v-1h4V0l2,1.5-2,1.5v-1Z"/></svg>

<svg xmlns="http://www.w3.org/2000/svg" viewBox="0 0 16 16"><path fill="none" d="M0 0h16v16H0z"/><path d="M2 5h2v2H2V5z" opacity=".25"/><path d="M2 8h2v2H2V8zm7 5h1v-1H9v1zm2-5v2h2V8h-2z" opacity=".5"/><path d="M7 4H1v10h4V8h2V4zm-3 9H2v-2h2v2zm0-4v1H2V8h2v1zm0-2H2V5h2v2zm2 0H5V5h1v2zm4 4H8v3h6V4h-4v7zm0 2H9v-1h1v1zm1-8h2v2h-2V5zm0 3h2v2h-2V8zm0 4v-1h2v2h-2v-1zM9 4H8V2h1v2zm0 3H8V5h1v2zm-2 3v1H6V9h2V8h1v2H7zm-1 2h1v2H6v-2zm0 3h1v1H6v-1zM9 1H8V0h1v1zm7 0v1h-4v1l-2-1.5L12 0v1h4zM5 2H1V1h4V0l2 1.5L5 3V2z"/></svg>
